assets/img/icons/icon-soil.svg

<svg fill="none" height="65" viewBox="0 0 72 65" width="72" xmlns="http://www.w3.org/2000/svg"><path d="m.0195934 30.658c0-3.696.0288-7.392-.01919996-11.088-.01280004-1.0272.28479956-1.6416 1.17439656-2.0672 12.11841-5.7824 24.22401-11.60318 36.35521-17.350388.576-.271995 1.472-.15039784 2.08.131203 9.0368 4.188805 18.0512 8.435195 27.072 12.668785 1.0944.512 2.1792 1.0528 3.2896 1.52.9664.4032 1.4272 1.088 1.424 2.224-.0192 7.5712-.032 15.1392-.0128 22.7104 0 .9664-.4768 1.4304-1.1584 1.8528-2.8928 1.7888-5.8336 3.5008-8.6432 5.4336-2.5952 1.7824-5.2256 3.5904-7.5296 5.7728-4.3552 4.1184-9.3984 7.0304-14.3296 10.1504-3.6096 2.2784-2.2816 2.384-6.1632.1632-10.8032-6.176-21.5616-12.4384-32.34881-18.6528-.815997-.4704-1.19999656-1.0848-1.1903966-2.112.0352-3.7856.0128-7.5712.0128-11.3568zm35.7504066 30.2304c0-1.2288-.0736-2.0704.016-2.8928.1344-1.2864-.3328-1.9616-1.4048-2.5728-10.1472-5.7824-20.256-11.6416-30.38081-17.4688-.4-.2304-.8416-.3872-1.472-.672 0 1.248.0288 2.2176-.0096 3.184-.032.8608.2816 1.3568 1.0016 1.7728 8.15361 4.7264 16.27841 9.4976 24.42561 14.2368 2.4896 1.4496 5.0112 2.8288 7.824 4.4128zm-33.17441-39.3632c0 .832.064 1.4016-.0128 1.9456-.2368 1.6928.4128 2.5824 1.8432 3.3696 7.91041 4.3648 15.75681 8.8608 23.62241 13.3216 2.4992 1.4176 4.9856 2.8704 7.7472 4.464 0-.9152-.0736-1.616.016-2.2912.192-1.4464-.3552-2.2016-1.5648-2.8736-7.2416-4.0192-14.4352-8.1376-21.6416-12.2272-3.23521-1.8368-6.46081-3.6832-10.00961-5.7088zm32.95681 30.4992c.5888-3.216.4288-3.568-1.952-4.9216-9.8389-5.5872-19.6757-11.1733-29.51041-16.7584-.4128-.2336-.8512-.4128-1.3056-.6304-.6848 3.1712-.4544 3.7184 1.9904 5.0912l29.36001 16.496c.4256.24.8704.4448 1.4176.7232zm10.2592-20.0192c-2.928-1.936-5.6448-3.7664-8.4064-5.5168-.4032-.256-1.0624-.2784-1.5264-.1312-3.472 1.104-6.9248 2.2688-10.3744 3.44-.4352.1472-.8288.4352-1.3536.7168.2816.256.3872.3904.5216.4672 3.7536 2.1216 7.504 4.2528 11.28 6.3296.336.1856.9216.1728 1.2608-.0192 2.5824-1.4656 5.1392-2.992 7.6928-4.5184.304-.1824.5536-.4672.9056-.768zm-7.4592 27.7728c.2784.0256.368.0608.4352.0352.1984-.0683.3861-.1568.5632-.2656 4.9504-3.1808 9.9872-6.1856 14.2816-10.448 4.0704-4.0384 9.1648-6.432 13.8016-9.5552 1.6384-1.104 2.0992-2.5632 1.28-4.6816-.224.0768-.4672.1248-.6784.2368-4.5952 2.432-9.0272 5.1328-12.8928 8.8256-1.8464 1.7664-3.7376 3.5232-5.7952 4.9792-3.232 2.2848-6.6336 4.2912-9.936 6.464-.4352.288-.9344.8192-1.0112 1.312-.16.9856-.048 2.0256-.048 3.0976zm30.6208-40.8608-2.592 1.4752c-4.2944 2.4448-8.7392 4.64-12.288 8.3488-4.3936 4.5984-9.376 8.2368-14.912 11.0176-.3296.1664-.7488.5696-.7776.896-.0928 1.1648-.0352 2.3392-.0352 3.648.4096-.1376.6144-.1696.7808-.2688 4.4096-2.6144 8.6816-5.4144 12.384-9.1808 2.0288-2.064 4.2304-3.9968 6.5792-5.6 3.1936-2.1824 6.608-3.984 9.9136-5.9776.3648-.2176.8608-.592.9024-.9472.1216-1.0272.0448-2.0832.0448-3.4112zm.016 7.9488c-1.4784.8544-2.6976 1.5488-3.9072 2.2624-3.792 2.2272-7.7504 4.1952-10.8768 7.5136-4.1792 4.4416-9.0208 7.84-14.1408 10.8352-1.9104 1.12-2.1344 1.7952-1.5072 4.3584.2624-.0928.5536-.1344.7776-.288 3.984-2.7424 8.2368-5.1296 11.8688-8.3392 5.2352-4.6304 10.7552-8.6176 16.8992-11.6256.3584-.176.8096-.6208.8448-.9856.1088-1.12.0416-2.2624.0416-3.7312zm-64.52161-7.728.0096.3968c2.2304 1.2192 4.4416 2.4768 6.70401 3.6192.4096.2048 1.0688.0704 1.536-.1216 3.264-1.3408 6.512-2.7328 9.7568-4.1216.272-.1152.5024-.3456.9696-.6784-2.3136-1.3792-4.4448-2.6016-6.5248-3.92-.8288-.5216-1.5136-.592-2.3968-.1312-2.2944 1.1904-4.64001 2.2688-6.96321 3.4016-1.0368.5056-2.0608 1.0368-3.0912 1.5552zm10.50561 5.9264-.0448.3936c1.584.9056 3.1328 1.8944 4.7648 2.6784.6304.3008 1.5072.3616 2.1728.1568 3.4304-1.0592 6.832-2.24 10.2432-3.3856.3744-.1248.7328-.304 1.1744-.4896-.1888-.2688-.256-.4576-.384-.5376-1.8848-1.1744-3.7664-2.3584-5.68-3.4752-.3136-.1856-.832-.2176-1.168-.0768-3.7024 1.552-7.3888 3.152-11.0784 4.736zm41.648-13.6512c-1.6224-.8-3.0624-1.2864-4.2688-2.15039-2.72-1.9456-5.2384-1.85279-7.8976.15041-1.2832.96638-2.8064 1.56798-4.3136 2.38718.2528.336.3424.56.4992.6496 2.2496 1.2896 4.4896 2.5984 6.7808 3.7952.3808.1984 1.0528.0256 1.4784-.208 2.2016-1.2032 4.368-2.4768 6.5376-3.7408.3136-.1824.592-.4384 1.184-.8832zm-1.6128 12.5376c-2.368-1.4592-4.3776-2.7232-6.4224-3.9136-.2336-.1344-.7136.0832-1.024.2528-2.2656 1.2608-4.5216 2.5504-6.7712 3.84-.2624.1504-.4832.3808-.9856.7808 2.7648 1.6864 5.2928 3.2448 7.8496 4.7552.2656.1568.8.1664 1.0144-.0192 2.0352-1.7728 4.0288-3.6032 6.3392-5.696zm12.128-7.6352c-2.304-1.12-4.3296-2.176-6.416-3.0688-.5536-.24-1.392-.208-1.9264.08-2.2816 1.2288-4.4992 2.5952-6.736 3.9264-.3424.2048-.6432.4864-1.136.8608.5248.3328.864.5504 1.2096.7584 1.5072.9088 3.0496 1.7632 4.5184 2.7424.7008.4704 1.2288.432 1.9136.0064 2.4256-1.5104 4.8832-2.9568 7.3248-4.4352.3424-.2048.6592-.4576 1.248-.8704zm-21.5328 2.2464c-.4352-.3936-.5952-.592-.7936-.7072-2.0256-1.1744-4.032-2.4-6.112-3.4592-.5184-.2624-1.3696-.1952-1.9008.0864-2.2112 1.1712-4.3584 2.48-6.5216 3.7472-.224.1312-.416.3296-.7776.6272 2.4096 1.3728 4.6432 2.6624 6.9024 3.9104.256.144.6848.1664.944.0352 2.672-1.3408 5.328-2.7264 8.2592-4.24zm-26.8992-6.3168c2.6816 1.6608 5.0464 3.1552 7.4496 4.5728.2752.1632.8032.0032 1.1424-.1728 2.1088-1.0944 4.2016-2.2272 6.2912-3.3664.2688-.1472.4896-.3936.9344-.7648-1.5712-.8128-3.0208-1.3696-4.2688-2.2528-2.5408-1.80159-4.9472-1.83678-7.504-.0512-1.1424.7968-2.4832 1.2672-4.0448 2.0352zm11.3664-5.46878-.0128.4032c1.872.9728 3.7568 1.91679 5.6064 2.92798.7392.4032 1.3568.352 2.0864-.0448 2.048-1.12319 4.1376-2.15998 6.208-3.23838.3456-.1792.6688-.4032 1.296-.784-2.3744-1.1552-4.448-2.17281-6.5312-3.16481-.1696-.08319-.4288-.08319-.5984-.00319-2.688 1.29279-5.3728 2.59413-8.0544 3.904z" fill="#bc6e44"/></svg>

<svg width="72" height="65" viewBox="0 0 72 65" fill="none" xmlns="http://www.w3.org/2000/svg">
<path d="M0.0195934 30.658C0.0195934 26.962 0.0483934 23.266 0.000393442 19.57C-0.0124066 18.5428 0.285193 17.9284 1.17479 17.5028C13.2932 11.7204 25.3988 5.89962 37.53 0.152412C38.106 -0.119583 39.002 0.00201416 39.61 0.283615C48.6468 4.47242 57.6612 8.71881 66.682 12.9524C67.7764 13.4644 68.8612 14.0052 69.9716 14.4724C70.938 14.8756 71.3988 15.5604 71.3956 16.6964C71.3764 24.2676 71.3636 31.8356 71.3828 39.4068C71.3828 40.3732 70.906 40.8372 70.2244 41.2596C67.3316 43.0484 64.3908 44.7604 61.5812 46.6932C58.986 48.4756 56.3556 50.2836 54.0516 52.466C49.6964 56.5844 44.6532 59.4964 39.722 62.6164C36.1124 64.8948 37.4404 65.0004 33.5588 62.7796C22.7556 56.6036 11.9972 50.3412 1.20999 44.1268C0.393993 43.6564 0.00999344 43.042 0.0195934 42.0148C0.0547934 38.2292 0.0323934 34.4436 0.0323934 30.658H0.0195934ZM35.77 60.8884C35.77 59.6596 35.6964 58.818 35.786 57.9956C35.9204 56.7092 35.4532 56.034 34.3812 55.4228C24.234 49.6404 14.1252 43.7812 4.00039 37.954C3.60039 37.7236 3.15879 37.5668 2.52839 37.282C2.52839 38.53 2.55719 39.4996 2.51879 40.466C2.48679 41.3268 2.80039 41.8228 3.52039 42.2388C11.674 46.9652 19.7988 51.7364 27.946 56.4756C30.4356 57.9252 32.9572 59.3044 35.77 60.8884ZM2.59559 21.5252C2.59559 22.3572 2.65959 22.9268 2.58279 23.4708C2.34599 25.1636 2.99559 26.0532 4.42599 26.8404C12.3364 31.2052 20.1828 35.7012 28.0484 40.162C30.5476 41.5796 33.034 43.0324 35.7956 44.626C35.7956 43.7108 35.722 43.01 35.8116 42.3348C36.0036 40.8884 35.4564 40.1332 34.2468 39.4612C27.0052 35.442 19.8116 31.3236 12.6052 27.234C9.36999 25.3972 6.14439 23.5508 2.59559 21.5252ZM35.5524 52.0244C36.1412 48.8084 35.9812 48.4564 33.6004 47.1028C23.7615 41.5156 13.9247 35.9295 4.08999 30.3444C3.67719 30.1108 3.23879 29.9316 2.78439 29.714C2.09959 32.8852 2.32999 33.4324 4.77479 34.8052L34.1348 51.3012C34.5604 51.5412 35.0052 51.746 35.5524 52.0244ZM45.8116 32.0052C42.8836 30.0692 40.1668 28.2388 37.4052 26.4884C37.002 26.2324 36.3428 26.21 35.8788 26.3572C32.4068 27.4612 28.954 28.626 25.5044 29.7972C25.0692 29.9444 24.6756 30.2324 24.1508 30.514C24.4324 30.77 24.538 30.9044 24.6724 30.9812C28.426 33.1028 32.1764 35.234 35.9524 37.3108C36.2884 37.4964 36.874 37.4836 37.2132 37.2916C39.7956 35.826 42.3524 34.2996 44.906 32.7732C45.21 32.5908 45.4596 32.306 45.8116 32.0052ZM38.3524 59.778C38.6308 59.8036 38.7204 59.8388 38.7876 59.8132C38.986 59.7449 39.1737 59.6564 39.3508 59.5476C44.3012 56.3668 49.338 53.362 53.6324 49.0996C57.7028 45.0612 62.7972 42.6676 67.434 39.5444C69.0724 38.4404 69.5332 36.9812 68.714 34.8628C68.49 34.9396 68.2468 34.9876 68.0356 35.0996C63.4404 37.5316 59.0084 40.2324 55.1428 43.9252C53.2964 45.6916 51.4052 47.4484 49.3476 48.9044C46.1156 51.1892 42.714 53.1956 39.4116 55.3684C38.9764 55.6564 38.4772 56.1876 38.4004 56.6804C38.2404 57.666 38.3524 58.706 38.3524 59.778ZM68.9732 18.9172L66.3812 20.3924C62.0868 22.8372 57.642 25.0324 54.0932 28.7412C49.6996 33.3396 44.7172 36.978 39.1812 39.7588C38.8516 39.9252 38.4324 40.3284 38.4036 40.6548C38.3108 41.8196 38.3684 42.994 38.3684 44.3028C38.778 44.1652 38.9828 44.1332 39.1492 44.034C43.5588 41.4196 47.8308 38.6196 51.5332 34.8532C53.562 32.7892 55.7636 30.8564 58.1124 29.2532C61.306 27.0708 64.7204 25.2692 68.026 23.2756C68.3908 23.058 68.8868 22.6836 68.9284 22.3284C69.05 21.3012 68.9732 20.2452 68.9732 18.9172ZM68.9892 26.866C67.5108 27.7204 66.2916 28.4148 65.082 29.1284C61.29 31.3556 57.3316 33.3236 54.2052 36.642C50.026 41.0836 45.1844 44.482 40.0644 47.4772C38.154 48.5972 37.93 49.2724 38.5572 51.8356C38.8196 51.7428 39.1108 51.7012 39.3348 51.5476C43.3188 48.8052 47.5716 46.418 51.2036 43.2084C56.4388 38.578 61.9588 34.5908 68.1028 31.5828C68.4612 31.4068 68.9124 30.962 68.9476 30.5972C69.0564 29.4772 68.9892 28.3348 68.9892 26.866ZM4.46759 19.138L4.47719 19.5348C6.70759 20.754 8.91879 22.0116 11.1812 23.154C11.5908 23.3588 12.25 23.2244 12.7172 23.0324C15.9812 21.6916 19.2292 20.2996 22.474 18.9108C22.746 18.7956 22.9764 18.5652 23.4436 18.2324C21.13 16.8532 18.9988 15.6308 16.9188 14.3124C16.09 13.7908 15.4052 13.7204 14.522 14.1812C12.2276 15.3716 9.88199 16.45 7.55879 17.5828C6.52199 18.0884 5.49799 18.6196 4.46759 19.138ZM14.9732 25.0644L14.9284 25.458C16.5124 26.3636 18.0612 27.3524 19.6932 28.1364C20.3236 28.4372 21.2004 28.498 21.866 28.2932C25.2964 27.234 28.698 26.0532 32.1092 24.9076C32.4836 24.7828 32.842 24.6036 33.2836 24.418C33.0948 24.1492 33.0276 23.9604 32.8996 23.8804C31.0148 22.706 29.1332 21.522 27.2196 20.4052C26.906 20.2196 26.3876 20.1876 26.0516 20.3284C22.3492 21.8804 18.6628 23.4804 14.9732 25.0644ZM56.6212 11.4132C54.9988 10.6132 53.5588 10.1268 52.3524 9.26281C49.6324 7.31721 47.114 7.41002 44.4548 9.41322C43.1716 10.3796 41.6484 10.9812 40.1412 11.8004C40.394 12.1364 40.4836 12.3604 40.6404 12.45C42.89 13.7396 45.13 15.0484 47.4212 16.2452C47.802 16.4436 48.474 16.2708 48.8996 16.0372C51.1012 14.834 53.2676 13.5604 55.4372 12.2964C55.7508 12.114 56.0292 11.858 56.6212 11.4132ZM55.0084 23.9508C52.6404 22.4916 50.6308 21.2276 48.586 20.0372C48.3524 19.9028 47.8724 20.1204 47.562 20.29C45.2964 21.5508 43.0404 22.8404 40.7908 24.13C40.5284 24.2804 40.3076 24.5108 39.8052 24.9108C42.57 26.5972 45.098 28.1556 47.6548 29.666C47.9204 29.8228 48.4548 29.8324 48.6692 29.6468C50.7044 27.874 52.698 26.0436 55.0084 23.9508ZM67.1364 16.3156C64.8324 15.1956 62.8068 14.1396 60.7204 13.2468C60.1668 13.0068 59.3284 13.0388 58.794 13.3268C56.5124 14.5556 54.2948 15.922 52.058 17.2532C51.7156 17.458 51.4148 17.7396 50.922 18.114C51.4468 18.4468 51.786 18.6644 52.1316 18.8724C53.6388 19.7812 55.1812 20.6356 56.65 21.6148C57.3508 22.0852 57.8788 22.0468 58.5636 21.6212C60.9892 20.1108 63.4468 18.6644 65.8884 17.186C66.2308 16.9812 66.5476 16.7284 67.1364 16.3156ZM45.6036 18.562C45.1684 18.1684 45.0084 17.97 44.81 17.8548C42.7844 16.6804 40.778 15.4548 38.698 14.3956C38.1796 14.1332 37.3284 14.2004 36.7972 14.482C34.586 15.6532 32.4388 16.962 30.2756 18.2292C30.0516 18.3604 29.8596 18.5588 29.498 18.8564C31.9076 20.2292 34.1412 21.5188 36.4004 22.7668C36.6564 22.9108 37.0852 22.9332 37.3444 22.802C40.0164 21.4612 42.6724 20.0756 45.6036 18.562ZM18.7044 12.2452C21.386 13.906 23.7508 15.4004 26.154 16.818C26.4292 16.9812 26.9572 16.8212 27.2964 16.6452C29.4052 15.5508 31.498 14.418 33.5876 13.2788C33.8564 13.1316 34.0772 12.8852 34.522 12.514C32.9508 11.7012 31.5012 11.1444 30.2532 10.2612C27.7124 8.45961 25.306 8.42442 22.7492 10.21C21.6068 11.0068 20.266 11.4772 18.7044 12.2452ZM30.0708 6.77642L30.058 7.17962C31.93 8.15242 33.8148 9.09641 35.6644 10.1076C36.4036 10.5108 37.0212 10.4596 37.7508 10.0628C39.7988 8.93961 41.8884 7.90282 43.9588 6.82442C44.3044 6.64522 44.6276 6.42122 45.2548 6.04042C42.8804 4.88522 40.8068 3.86761 38.7236 2.87561C38.554 2.79242 38.2948 2.79242 38.1252 2.87242C35.4372 4.16521 32.7524 5.46655 30.0708 6.77642Z" fill="#BC6E44"/>
</svg>
